assets/images/corrida-on.svg

<svg width="30" height="30" viewBox="0 0 30 30" fill="none" xmlns="http://www.w3.org/2000/svg">
<rect width="30" height="30" rx="15" fill="#5F2167"/>
<path d="M12.8921 17.2811H11.3384V17.9817H12.8921V17.2811Z" fill="#FAFBFD"/>
<path d="M17.1079 17.2811H18.6616V17.9817H17.1079V17.2811Z" fill="#FAFBFD"/>
<path fill-rule="evenodd" clip-rule="evenodd" d="M16.7619 20.5947H13.2135V21.4441C13.2135 21.7491 12.9662 22.0005 12.6612 22.0005H11.0292C10.7242 22.0005 10.4728 21.7532 10.4728 21.4441V20.2987C10.2009 20.069 10.0274 19.7257 10.0274 19.3419V11.2743L9.41766 11.7163V13.6451H8.71704V11.3578L10.0274 10.4109V9.25288C10.0274 8.56462 10.5879 8 11.2803 8H18.7234C19.4117 8 19.9763 8.5605 19.9763 9.25288V10.4192L21.2829 11.3587V13.6461H20.5823V11.7173L19.9763 11.2838V19.3419C19.9739 19.7379 19.7895 20.0908 19.5026 20.3203V21.4441C19.5067 21.7491 19.2553 22.0005 18.9503 22.0005H17.3183C17.0133 22.0005 16.7619 21.7532 16.7619 21.4441V20.5947ZM17.4625 20.5947V21.2999H18.8019V20.5921C18.7746 20.5938 18.7471 20.5947 18.7193 20.5947H17.4625ZM11.2803 20.5947H12.5129V21.2999H11.1735V20.5902C11.2087 20.5932 11.2443 20.5947 11.2803 20.5947ZM11.2803 8.70062C10.9753 8.70062 10.7281 8.9479 10.7281 9.25288V9.92037H19.2757V9.25288C19.2757 8.9479 19.0284 8.70062 18.7234 8.70062H11.2803ZM19.2757 10.621V15.7562H10.7281V10.621H19.2757ZM19.2757 16.4568H10.7281V19.3419C10.7281 19.6468 10.9753 19.8941 11.2803 19.8941H18.7234C19.0284 19.8941 19.2757 19.6468 19.2757 19.3419V16.4568Z" fill="#FAFBFD"/>
</svg>

<svg xmlns="http://www.w3.org/2000/svg" width="30" height="30" fill="none"><rect width="30" height="30" fill="#5F2167" rx="15"/><path fill="#FAFBFD" d="M12.892 17.281h-1.554v.7h1.554zM17.108 17.281h1.554v.7h-1.554z"/><path fill="#FAFBFD" fill-rule="evenodd" d="M16.762 20.595h-3.549v.85a.556.556 0 0 1-.552.555H11.03a.557.557 0 0 1-.556-.556V20.3a1.25 1.25 0 0 1-.446-.957v-8.068l-.61.442v1.93h-.7v-2.288l1.31-.947V9.253c0-.688.56-1.253 1.253-1.253h7.443c.689 0 1.253.56 1.253 1.253v1.166l1.307.94v2.287h-.7v-1.929l-.607-.433v8.058a1.26 1.26 0 0 1-.473.978v1.124a.553.553 0 0 1-.553.556h-1.632a.557.557 0 0 1-.556-.556zm.7 0v.705h1.34v-.708l-.083.003zm-6.182 0h1.233v.705h-1.34v-.71q.053.005.107.005m0-11.894a.55.55 0 0 0-.552.552v.667h8.548v-.667a.55.55 0 0 0-.553-.552zm7.996 1.92v5.135h-8.548v-5.135zm0 5.836h-8.548v2.885c0 .305.247.552.552.552h7.443a.55.55 0 0 0 .553-.552z" clip-rule="evenodd"/></svg>
